X: 18713
T: Iain MacPherson's
R: reel
M: 4/4
K: Bdorian
A|:BffB ffBf|fBfB eece|BffB ffBf|fBcA ~B3 A|
BffB ffBf|fBfB eece|BffB ffBb|afec ~B3 A|
BbbB a2Bb|bBa2 feef|BbbB a2Bb|afec ~B3A|
BbbB a2Bb|bBa2 feef|BbbB a2Bb|afec ~B3A:|

